!!!OTL: Am Sommerabend.
!!!OTL-incipit: DER ABEND SCHLEIERT FLUR UND HAIN
!!!COM: Spazier
!!!ARE: Europa, Mitteleuropa, Deutschland
!!!SCT: F0942
!!!TXL: @@DE
!!!YEM: Copyright 1995, estate of Helmut Schaffrath.
**kern	**text
*ICvox	*
*clefG2	*
*M3/4	*
*k[f#c#g#]	*
*A:	*
!LO:TX:a:t=Langſam.	!
!LO:TX:a:t=Ges. v. H. Langer	!
{4e	1._Der
=1	=1
2cc#/	A-
4b/	-bend
=2	=2
2a	ſchleiert
4e	.
=3	=3
(4.f#	Flur
8a/)	.
8g#L	und
8bJ	.
=4	=4
2a}	Hain
{4a	in
=5	=5
(>4.b^/	trau-
8cc#/)	.
4a	-lich
=6	=6
(>4.b^/	hol-
8cc#/)	.
4a	-de
=7	=7
(4ee/	Dämmrung
4dd/)	.
4cc#/	.
=8	=8
2b}/	ein.
{8bL	Manch
8cc#J	.
=9	=9
2dd/	Wölk-
4dd	-lein
=10	=10
(4cc#	hell
4b)	.
(8cc#L	im
8ddJ)	.
=11	=11
(8ff#L	We-
8eeJ	.
4dd)	.
4cc#	-ſten
=12	=12
2cc#/}	ſchwimmt,
{8.cc#/L	vom
16bJ	.
=13	=13
(4b/	ſanf-
4ff#/)	.
4ff#/	-ten
=14	=14
(4ff#/	Lie-
4ee/)	.
4a	-bes-
=15	=15
(4b/	-ſtrom
4dd/)	.
4g#	durchflimmt.
=16	=16
2a}	.
==	==
!!!AGN: Liebes - Lied
!!!ONB: ESAC (Essen Associative Code) Database: FINK
!!!AMT: simple triple
!!!AIN: vox
!!!EED: Helmut Schaffrath
!!!EEV: 1.0
!!Text: Matthisson
!!!GTL: Minnelieder
!!!source: Musikalischer Hausschatz der Deutschen. Eine Sammlung von über 1000 Liedern und Gesängen mit Singstimmen und Klavierbegleitung. Leipzig, Litterarisches Verlags-Haus.
!!!page: 699
!!!URL-scan: https://www.digitale-sammlungen.de/en/view/bsb11144622?page=609
!!!ENC: Anna Maria Matuszewska
!!!EEV: 2024/08/08
*-	*-